austria/municipalities/40706.svg

<?xml version="1.0" encoding="UTF-8"?>
<!DOCTYPE svg PUBLIC "-//W3C//DTD SVG 1.1//EN" "http://www.w3.org/Graphics/SVG/1.1/DTD/svg11.dtd">
<svg xmlns="http://www.w3.org/2000/svg" version="1.1" width="166px" height="207px" style="shape-rendering:geometricPrecision; text-rendering:geometricPrecision; image-rendering:optimizeQuality; fill-rule:evenodd; clip-rule:evenodd" xmlns:xlink="http://www.w3.org/1999/xlink">
<g><path style="opacity:1" fill="#000000" d="M -0.5,-0.5 C 54.8333,-0.5 110.167,-0.5 165.5,-0.5C 165.5,43.5 165.5,87.5 165.5,131.5C 158.039,171.295 134.706,196.295 95.5,206.5C 86.8333,206.5 78.1667,206.5 69.5,206.5C 29.4115,196.078 6.07817,170.411 -0.5,129.5C -0.5,86.1667 -0.5,42.8333 -0.5,-0.5 Z"/></g>
<g><path style="opacity:1" fill="#003266" d="M 3.5,3.5 C 29.1753,3.16689 54.842,3.50022 80.5,4.5C 67.9802,40.8628 55.4802,77.1961 43,113.5C 38.658,97.8325 33.4913,82.4991 27.5,67.5C 26.2011,68.09 25.3678,69.09 25,70.5C 18.2857,90.9293 11.2857,111.263 4,131.5C 3.50001,88.8346 3.33334,46.168 3.5,3.5 Z"/></g>
<g><path style="opacity:1" fill="#003266" d="M 84.5,4.5 C 109.995,3.50223 135.661,3.16889 161.5,3.5C 161.667,46.168 161.5,88.8346 161,131.5C 153.993,110.824 146.993,90.1569 140,69.5C 139.311,68.6433 138.478,67.9767 137.5,67.5C 131.835,82.6605 126.669,97.9939 122,113.5C 109.637,77.0095 97.1366,40.6761 84.5,4.5 Z"/></g>
<g><path style="opacity:1" fill="#fefffe" d="M 81.5,5.5 C 94.9633,41.7127 107.797,78.3794 120,115.5C 121.797,118.096 123.131,117.763 124,114.5C 128.674,100.478 133.341,86.4781 138,72.5C 145.726,94.2255 153.226,116.059 160.5,138C 151.78,172.054 130.446,193.387 96.5,202C 56.8777,206.342 28.0444,190.842 10,155.5C 8.08225,149.323 6.24891,143.156 4.5,137C 12.2246,115.614 19.7246,94.1143 27,72.5C 31.8608,86.7494 36.5274,101.083 41,115.5C 41.8525,117.125 42.8525,117.458 44,116.5C 57.406,79.7816 69.906,42.7816 81.5,5.5 Z"/></g>
<g><path style="opacity:1" fill="#000000" d="M 85.5,118.5 C 91.1363,118.853 96.803,120.019 102.5,122C 106.473,124.639 109.806,127.973 112.5,132C 114.081,132.707 115.581,133.54 117,134.5C 118.139,138.112 119.806,141.446 122,144.5C 122.147,149.584 122.314,154.584 122.5,159.5C 119.89,164.222 117.723,169.222 116,174.5C 115.167,175.333 114.333,176.167 113.5,177C 108.2,180.321 102.866,183.654 97.5,187C 89.1894,189.261 80.8561,189.594 72.5,188C 70.9512,186.786 69.7845,185.286 69,183.5C 68.586,183.957 68.086,184.291 67.5,184.5C 65.556,183.811 63.556,183.311 61.5,183C 45.503,169.586 39.3363,152.42 43,131.5C 43.9908,128.34 45.8241,125.84 48.5,124C 55.3258,124.53 61.9925,126.03 68.5,128.5C 70.7761,124.04 74.4428,121.873 79.5,122C 81.2573,120.25 83.2573,119.084 85.5,118.5 Z"/></g>
<g><path style="opacity:1" fill="#cb0000" d="M 81.5,126.5 C 81.5858,125.504 81.2524,124.671 80.5,124C 83.1775,121.554 86.1775,121.054 89.5,122.5C 90.6483,126.147 90.6483,129.814 89.5,133.5C 88.0222,133.762 86.6888,133.429 85.5,132.5C 84.6389,130.089 83.3056,128.089 81.5,126.5 Z"/></g>
<g><path style="opacity:1" fill="#cb0000" d="M 92.5,121.5 C 96.072,121.685 99.072,123.019 101.5,125.5C 99.9423,129.389 97.6089,132.722 94.5,135.5C 92.8333,135.167 91.8333,134.167 91.5,132.5C 92.3464,128.882 92.6797,125.215 92.5,121.5 Z"/></g>
<g><path style="opacity:1" fill="#cb0000" d="M 81.5,126.5 C 82.1599,128.816 82.8266,131.149 83.5,133.5C 82.4613,135.531 80.7946,136.864 78.5,137.5C 76.4083,134.319 74.075,131.319 71.5,128.5C 71.9767,127.522 72.6433,126.689 73.5,126C 76.2205,125.398 78.8872,125.565 81.5,126.5 Z"/></g>
<g><path style="opacity:1" fill="#cb0000" d="M 48.5,126.5 C 54.4507,126.729 60.1173,128.062 65.5,130.5C 63.1895,132.954 61.5228,135.788 60.5,139C 55.1771,139.499 49.8437,139.666 44.5,139.5C 44.6407,134.748 45.974,130.415 48.5,126.5 Z"/></g>
<g><path style="opacity:1" fill="#cb0000" d="M 102.5,127.5 C 106.193,127.186 108.527,128.852 109.5,132.5C 107.766,135.2 105.432,137.2 102.5,138.5C 100.77,137.974 99.4363,136.974 98.5,135.5C 100.302,133.042 101.635,130.375 102.5,127.5 Z"/></g>
<g><path style="opacity:1" fill="#fefffe" d="M -0.5,129.5 C 6.07817,170.411 29.4115,196.078 69.5,206.5C 46.1667,206.5 22.8333,206.5 -0.5,206.5C -0.5,180.833 -0.5,155.167 -0.5,129.5 Z"/></g>
<g><path style="opacity:1" fill="#cb0000" d="M 67.5,131.5 C 74.803,132.749 77.6363,137.083 76,144.5C 71.9146,143.009 67.748,141.676 63.5,140.5C 64.0873,137.12 65.4206,134.12 67.5,131.5 Z"/></g>
<g><path style="opacity:1" fill="#fefffe" d="M 165.5,131.5 C 165.5,156.5 165.5,181.5 165.5,206.5C 142.167,206.5 118.833,206.5 95.5,206.5C 134.706,196.295 158.039,171.295 165.5,131.5 Z"/></g>
<g><path style="opacity:1" fill="#cb0000" d="M 109.5,134.5 C 115.543,135.103 117.21,137.936 114.5,143C 111.5,143.667 108.5,143.667 105.5,143C 104.572,142.612 103.905,141.945 103.5,141C 106.257,139.471 108.257,137.305 109.5,134.5 Z"/></g>
<g><path style="opacity:1" fill="#cb0000" d="M 86.5,137.5 C 88.2646,136.539 90.2646,136.205 92.5,136.5C 92.5,137.833 92.5,139.167 92.5,140.5C 89.9228,140.545 87.9228,139.545 86.5,137.5 Z"/></g>
<g><path style="opacity:1" fill="#cb0000" d="M 81.5,138.5 C 84.9496,137.756 86.6162,139.09 86.5,142.5C 84.1432,142.663 81.8098,142.497 79.5,142C 80.8228,141.184 81.4894,140.017 81.5,138.5 Z"/></g>
<g><path style="opacity:1" fill="#cb0000" d="M 94.5,138.5 C 95.8734,138.343 97.2068,138.51 98.5,139C 99.4506,139.718 99.6172,140.551 99,141.5C 94.6516,144.558 93.1516,143.558 94.5,138.5 Z"/></g>
<g><path style="opacity:1" fill="#cb0000" d="M 49.5,140.5 C 52.876,140.952 56.2094,141.618 59.5,142.5C 59.9562,145.512 60.2896,148.512 60.5,151.5C 56.1252,153.012 51.7919,154.679 47.5,156.5C 44.6745,152.608 43.8412,148.275 45,143.5C 46.3103,142.103 47.8103,141.103 49.5,140.5 Z"/></g>
<g><path style="opacity:1" fill="#cb0000" d="M 64.5,143.5 C 67.6092,143.655 70.6092,144.322 73.5,145.5C 75.0863,147.173 75.7529,149.173 75.5,151.5C 74.1266,151.343 72.7932,151.51 71.5,152C 74.376,152.438 77.0427,153.438 79.5,155C 76.3015,157.364 72.9681,159.53 69.5,161.5C 63.9429,157.999 64.2762,155.166 70.5,153C 62.7128,153.243 60.7128,150.076 64.5,143.5 Z"/></g>
<g><path style="opacity:1" fill="#cb0000" d="M 89.5,143.5 C 92.6686,143.662 94.6686,145.328 95.5,148.5C 94.2713,149.281 92.938,149.781 91.5,150C 93.5268,151.396 93.8602,153.062 92.5,155C 90.6332,155.711 89.1332,155.211 88,153.5C 87.51,154.793 87.3433,156.127 87.5,157.5C 82.201,157.451 81.201,155.285 84.5,151C 85.8989,150.405 87.2322,150.572 88.5,151.5C 88.8333,151 89.1667,150.5 89.5,150C 86.8875,147.692 86.8875,145.525 89.5,143.5 Z"/></g>
<g><path style="opacity:1" fill="#cb0000" d="M 99.5,143.5 C 103.225,143.78 104.392,145.78 103,149.5C 101.301,148.594 99.4672,148.261 97.5,148.5C 97.3915,146.486 98.0582,144.82 99.5,143.5 Z"/></g>
<g><path style="opacity:1" fill="#cb0000" d="M 116.5,143.5 C 118.411,143.574 119.578,144.574 120,146.5C 120.497,148.81 120.663,151.143 120.5,153.5C 115.905,153.281 111.571,152.115 107.5,150C 106.62,148.644 106.286,147.144 106.5,145.5C 110.122,145.678 113.456,145.011 116.5,143.5 Z"/></g>
<g><path style="opacity:1" fill="#cb0000" d="M 79.5,144.5 C 83.074,143.908 85.074,145.408 85.5,149C 78.0914,154.42 76.0914,152.92 79.5,144.5 Z"/></g>
<g><path style="opacity:1" fill="#cb0000" d="M 96.5,150.5 C 102.638,149.78 104.638,152.28 102.5,158C 97.8538,157.802 95.8538,155.302 96.5,150.5 Z"/></g>
<g><path style="opacity:1" fill="#cb0000" d="M 106.5,152.5 C 110.144,153.315 113.811,154.148 117.5,155C 121.601,158.734 121.268,161.9 116.5,164.5C 109.851,163.178 106.518,159.178 106.5,152.5 Z"/></g>
<g><path style="opacity:1" fill="#cb0000" d="M 55.5,154.5 C 58.1667,154.5 60.8333,154.5 63.5,154.5C 63.2035,157.724 63.8702,160.724 65.5,163.5C 61.8135,165.931 58.6468,168.931 56,172.5C 51.6449,169.113 48.8115,164.78 47.5,159.5C 49.8915,157.309 52.5582,155.642 55.5,154.5 Z"/></g>
<g><path style="opacity:1" fill="#cb0000" d="M 94.5,156.5 C 101.691,161.94 100.691,165.273 91.5,166.5C 91.9452,163.635 91.2785,161.135 89.5,159C 91.4913,158.626 93.158,157.793 94.5,156.5 Z"/></g>
<g><path style="opacity:1" fill="#cb0000" d="M 77.5,157.5 C 79.9124,157.244 81.5791,158.244 82.5,160.5C 80.9239,162.979 79.9239,165.646 79.5,168.5C 76.1746,168.506 73.8413,167.006 72.5,164C 73.9993,161.672 75.666,159.505 77.5,157.5 Z"/></g>
<g><path style="opacity:1" fill="#cb0000" d="M 85.5,159.5 C 88.8925,159.375 90.2259,161.042 89.5,164.5C 90.2241,167.938 88.8908,169.604 85.5,169.5C 83.448,169.384 82.1147,168.384 81.5,166.5C 82.0997,163.651 83.4331,161.318 85.5,159.5 Z"/></g>
<g><path style="opacity:1" fill="#cb0000" d="M 104.5,159.5 C 108.225,162.546 112.225,165.38 116.5,168C 113.757,176.636 109.59,177.469 104,170.5C 103.71,168.956 103.044,167.623 102,166.5C 101.162,163.519 101.995,161.186 104.5,159.5 Z"/></g>
<g><path style="opacity:1" fill="#cb0000" d="M 67.5,164.5 C 69.7093,166.314 72.0427,168.148 74.5,170C 71.9943,173.179 70.1609,176.679 69,180.5C 63.4518,181.474 59.2852,179.307 56.5,174C 60.2384,170.816 63.905,167.649 67.5,164.5 Z"/></g>
<g><path style="opacity:1" fill="#cb0000" d="M 99.5,166.5 C 101.678,170.168 104.344,173.501 107.5,176.5C 100.395,184.214 96.3948,182.714 95.5,172C 95.1822,168.833 96.5155,167 99.5,166.5 Z"/></g>
<g><path style="opacity:1" fill="#cb0000" d="M 91.5,169.5 C 93.2591,173.873 95.2591,178.373 97.5,183C 94.4167,185.813 90.9167,186.646 87,185.5C 84.561,178.991 86.061,173.658 91.5,169.5 Z"/></g>
<g><path style="opacity:1" fill="#cb0000" d="M 77.5,170.5 C 80.4715,170.435 83.1382,171.269 85.5,173C 83.7819,176.742 83.4486,180.575 84.5,184.5C 82.9124,187.257 80.579,188.09 77.5,187C 72.3629,185.794 70.5295,182.627 72,177.5C 72.9668,174.379 74.8001,172.046 77.5,170.5 Z"/></g>
</svg>

<svg xmlns="http://www.w3.org/2000/svg" width="166" height="207" style="shape-rendering:geometricPrecision;text-rendering:geometricPrecision;image-rendering:optimizeQuality;fill-rule:evenodd;clip-rule:evenodd"><path style="opacity:1" d="M-.5-.5h166v132c-7.461 39.795-30.794 64.795-70 75h-26c-40.088-10.422-63.422-36.089-70-77V-.5z"/><path style="opacity:1" fill="#003266" d="M3.5 3.5c25.675-.333 51.342 0 77 1-12.52 36.363-25.02 72.696-37.5 109a442.475 442.475 0 0 0-15.5-46c-1.299.59-2.132 1.59-2.5 3a2301.304 2301.304 0 0 1-21 61c-.5-42.665-.667-85.332-.5-128zM84.5 4.5a1482.844 1482.844 0 0 1 77-1c.167 42.668 0 85.335-.5 128-7.007-20.676-14.007-41.343-21-62a7.248 7.248 0 0 0-2.5-2 745.224 745.224 0 0 0-15.5 46 12269.03 12269.03 0 0 0-37.5-109z"/><path style="opacity:1" fill="#fefffe" d="M81.5 5.5a3039.871 3039.871 0 0 1 38.5 110c1.797 2.596 3.131 2.263 4-1l14-42a3213.873 3213.873 0 0 1 22.5 65.5c-8.72 34.054-30.054 55.387-64 64-39.622 4.342-68.456-11.158-86.5-46.5A796.705 796.705 0 0 1 4.5 137 3115.264 3115.264 0 0 0 27 72.5c4.86 14.25 9.527 28.583 14 43 .852 1.625 1.852 1.958 3 1a2412.528 2412.528 0 0 0 37.5-111z"/><path style="opacity:1" d="M85.5 118.5c5.636.353 11.303 1.519 17 3.5 3.973 2.639 7.306 5.973 10 10a29.517 29.517 0 0 1 4.5 2.5 35.145 35.145 0 0 0 5 10c.147 5.084.314 10.084.5 15a86.265 86.265 0 0 0-6.5 15l-2.5 2.5c-5.3 3.321-10.634 6.654-16 10-8.31 2.261-16.644 2.594-25 1a11.529 11.529 0 0 1-3.5-4.5 3.647 3.647 0 0 1-1.5 1 32.444 32.444 0 0 0-6-1.5c-15.997-13.414-22.164-30.58-18.5-51.5.99-3.16 2.824-5.66 5.5-7.5 6.826.53 13.492 2.03 20 4.5 2.276-4.46 5.943-6.627 11-6.5 1.757-1.75 3.757-2.916 6-3.5z"/><path style="opacity:1" fill="#cb0000" d="M81.5 126.5c.086-.996-.248-1.829-1-2.5 2.677-2.446 5.677-2.946 9-1.5 1.148 3.647 1.148 7.314 0 11-1.478.262-2.811-.071-4-1-.861-2.411-2.194-4.411-4-6zM92.5 121.5c3.572.185 6.572 1.519 9 4a26.39 26.39 0 0 1-7 10c-1.667-.333-2.667-1.333-3-3a39.65 39.65 0 0 0 1-11zM81.5 126.5c.66 2.316 1.327 4.649 2 7-1.039 2.031-2.705 3.364-5 4a71.888 71.888 0 0 0-7-9 7.248 7.248 0 0 1 2-2.5c2.72-.602 5.387-.435 8 .5zM48.5 126.5c5.95.229 11.617 1.562 17 4a21.975 21.975 0 0 0-5 8.5c-5.323.499-10.656.666-16 .5.14-4.752 1.474-9.085 4-13zM102.5 127.5c3.693-.314 6.027 1.352 7 5-1.734 2.7-4.068 4.7-7 6-1.73-.526-3.064-1.526-4-3a26.219 26.219 0 0 0 4-8z"/><path style="opacity:1" fill="#fefffe" d="M-.5 129.5c6.578 40.911 29.912 66.578 70 77h-70v-77z"/><path style="opacity:1" fill="#cb0000" d="M67.5 131.5c7.303 1.249 10.136 5.583 8.5 13a164.313 164.313 0 0 0-12.5-4c.587-3.38 1.92-6.38 4-9z"/><path style="opacity:1" fill="#fefffe" d="M165.5 131.5v75h-70c39.206-10.205 62.539-35.205 70-75z"/><path style="opacity:1" fill="#cb0000" d="M109.5 134.5c6.043.603 7.71 3.436 5 8.5-3 .667-6 .667-9 0-.928-.388-1.595-1.055-2-2 2.757-1.529 4.757-3.695 6-6.5zM86.5 137.5c1.765-.961 3.765-1.295 6-1v4c-2.577.045-4.577-.955-6-3zM81.5 138.5c3.45-.744 5.116.59 5 4a24.935 24.935 0 0 1-7-.5c1.323-.816 1.99-1.983 2-3.5zM94.5 138.5a8.43 8.43 0 0 1 4 .5c.95.718 1.117 1.551.5 2.5-4.348 3.058-5.848 2.058-4.5-3zM49.5 140.5a79.158 79.158 0 0 1 10 2c.456 3.012.79 6.012 1 9a203.309 203.309 0 0 0-13 5c-2.825-3.892-3.659-8.225-2.5-13 1.31-1.397 2.81-2.397 4.5-3zM64.5 143.5c3.11.155 6.11.822 9 2 1.586 1.673 2.253 3.673 2 6a8.43 8.43 0 0 0-4 .5 20.512 20.512 0 0 1 8 3 99.438 99.438 0 0 1-10 6.5c-5.557-3.501-5.224-6.334 1-8.5-7.787.243-9.787-2.924-6-9.5zM89.5 143.5c3.169.162 5.169 1.828 6 5a10.256 10.256 0 0 1-4 1.5c2.027 1.396 2.36 3.062 1 5-1.867.711-3.367.211-4.5-1.5a8.435 8.435 0 0 0-.5 4c-5.299-.049-6.299-2.215-3-6.5 1.399-.595 2.732-.428 4 .5l1-1.5c-2.612-2.308-2.612-4.475 0-6.5zM99.5 143.5c3.725.28 4.892 2.28 3.5 6-1.699-.906-3.533-1.239-5.5-1-.109-2.014.558-3.68 2-5zM116.5 143.5c1.911.074 3.078 1.074 3.5 3 .497 2.31.663 4.643.5 7a31.083 31.083 0 0 1-13-3.5c-.88-1.356-1.214-2.856-1-4.5 3.622.178 6.956-.489 10-2z"/><path style="opacity:1" fill="#cb0000" d="M79.5 144.5c3.574-.592 5.574.908 6 4.5-7.409 5.42-9.409 3.92-6-4.5zM96.5 150.5c6.138-.72 8.138 1.78 6 7.5-4.646-.198-6.646-2.698-6-7.5zM106.5 152.5c3.644.815 7.311 1.648 11 2.5 4.101 3.734 3.768 6.9-1 9.5-6.649-1.322-9.982-5.322-10-12zM55.5 154.5h8c-.297 3.224.37 6.224 2 9a37.328 37.328 0 0 0-9.5 9c-4.355-3.387-7.188-7.72-8.5-13 2.392-2.191 5.058-3.858 8-5zM94.5 156.5c7.191 5.44 6.191 8.773-3 10 .445-2.865-.222-5.365-2-7.5 1.991-.374 3.658-1.207 5-2.5zM77.5 157.5c2.412-.256 4.08.744 5 3-1.576 2.479-2.576 5.146-3 8-3.325.006-5.659-1.494-7-4.5a48.583 48.583 0 0 1 5-6.5zM85.5 159.5c3.392-.125 4.726 1.542 4 5 .724 3.438-.61 5.104-4 5-2.052-.116-3.385-1.116-4-3 .6-2.849 1.933-5.182 4-7zM104.5 159.5a108.422 108.422 0 0 0 12 8.5c-2.743 8.636-6.91 9.469-12.5 2.5-.29-1.544-.956-2.877-2-4-.838-2.981-.005-5.314 2.5-7zM67.5 164.5a214.129 214.129 0 0 0 7 5.5 31.728 31.728 0 0 0-5.5 10.5c-5.548.974-9.715-1.193-12.5-6.5 3.738-3.184 7.405-6.351 11-9.5zM99.5 166.5a46.485 46.485 0 0 0 8 10c-7.105 7.714-11.105 6.214-12-4.5-.318-3.167 1.016-5 4-5.5zM91.5 169.5c1.76 4.373 3.76 8.873 6 13.5-3.083 2.813-6.583 3.646-10.5 2.5-2.439-6.509-.939-11.842 4.5-16zM77.5 170.5c2.972-.065 5.638.769 8 2.5-1.718 3.742-2.051 7.575-1 11.5-1.588 2.757-3.921 3.59-7 2.5-5.137-1.206-6.97-4.373-5.5-9.5.967-3.121 2.8-5.454 5.5-7z"/></svg>
